check-ins/report-preview.svg

<svg xmlns="http://www.w3.org/2000/svg" viewBox="0 0 16 16"><defs><style>.cls-1{fill:#231f20}</style></defs><title>report-preview</title><g id="Layer_1" data-name="Layer 1"><path class="cls-1" d="M11.965 3.186L7.986.218a.6.6 0 0 0-.417-.169h-6.2a.6.6 0 0 0-.417.17.577.577 0 0 0-.176.408v13.028a.578.578 0 0 0 .172.409.6.6 0 0 0 .417.169h4.108l-1.045-1.9H2.665V1.946h4.77v1.776a.13.13 0 0 0 .039.091.132.132 0 0 0 .093.037h2.682v.936h1.89V3.595a.574.574 0 0 0-.174-.409z"/><path class="cls-1" d="M14.985 14.31l-2.549-2.549a4.153 4.153 0 0 0 .606-2.167 4.4 4.4 0 0 0-4.3-4.3 4.174 4.174 0 0 0-4.177 4.172 4.4 4.4 0 0 0 4.3 4.3 4.154 4.154 0 0 0 2.1-.568l2.563 2.563a.642.642 0 0 0 .908 0l.636-.636c.255-.248.164-.564-.087-.815zm-6.247-2.239A2.541 2.541 0 1 1 11.28 9.53a2.541 2.541 0 0 1-2.542 2.541z"/></g></svg>

<svg xmlns="http://www.w3.org/2000/svg" viewBox="0 0 16 16"><defs><style>.cls-1{fill:#231f20;}</style></defs><title>report-preview</title><g id="Layer_1" data-name="Layer 1"><path class="cls-1" d="M11.965,3.186,7.986.218A.6.6,0,0,0,7.569.049h-6.2a.6.6,0,0,0-.417.17A.577.577,0,0,0,.776.627V13.655a.578.578,0,0,0,.172.409.6.6,0,0,0,.417.169H5.473l-1.045-1.9H2.665V1.946H7.435V3.722a.13.13,0,0,0,.039.091.132.132,0,0,0,.093.037h2.682v.936h1.89V3.595A.574.574,0,0,0,11.965,3.186Z"/><path class="cls-1" d="M14.985,14.31l-2.549-2.549a4.153,4.153,0,0,0,.606-2.167,4.4,4.4,0,0,0-4.3-4.3A4.174,4.174,0,0,0,4.565,9.466a4.4,4.4,0,0,0,4.3,4.3,4.154,4.154,0,0,0,2.1-.568l2.563,2.563a.642.642,0,0,0,.908,0l.636-.636C15.327,14.877,15.236,14.561,14.985,14.31ZM8.738,12.071A2.541,2.541,0,1,1,11.28,9.53,2.541,2.541,0,0,1,8.738,12.071Z"/></g></svg>
